X: 2404
M: C
L: 1/8
K: G
|:\
d4 (B2G2) | Adfe dcBA |\
d2B>G A>GB>A | G2[g2B2] [g2B2]z1 :|
|:\
f3g a2f2 | d>^cd>e d2g2 |\
g2e2 c2e2 | d>fa>g (3fed (3cBA |\
d2B>G A>GB>A | G2[g2B2] [g2B2]z1 :|


